SVG_Azure_All/Time Series Insights Environment.svg

<?xml version="1.0" encoding="UTF-8" standalone="no"?>
<!-- Generated by Microsoft Visio, SVG Export Time Series Insights Environment.svg Page-1 -->

<svg
   xmlns:dc="http://purl.org/dc/elements/1.1/"
   xmlns:cc="http://creativecommons.org/ns#"
   xmlns:rdf="http://www.w3.org/1999/02/22-rdf-syntax-ns#"
   xmlns:svg="http://www.w3.org/2000/svg"
   xmlns="http://www.w3.org/2000/svg"
   xmlns:sodipodi="http://sodipodi.sourceforge.net/DTD/sodipodi-0.dtd"
   xmlns:inkscape="http://www.inkscape.org/namespaces/inkscape"
   width="0.78745151in"
   height="0.78724968in"
   viewBox="0 0 56.696397 56.68205"
   xml:space="preserve"
   class="st3"
   version="1.1"
   id="svg34"
   sodipodi:docname="Time Series Insights Environment.svg"
   style="font-size:12px;overflow:visible;color-interpolation-filters:sRGB;fill:none;fill-rule:evenodd;stroke-linecap:square;stroke-miterlimit:3"
   inkscape:version="0.92.5 (2060ec1f9f, 2020-04-08)"><metadata
   id="metadata38"><rdf:RDF><cc:Work
       rdf:about=""><dc:format>image/svg+xml</dc:format><dc:type
         rdf:resource="http://purl.org/dc/dcmitype/StillImage" /></cc:Work></rdf:RDF></metadata><sodipodi:namedview
   pagecolor="#ffffff"
   bordercolor="#666666"
   borderopacity="1"
   objecttolerance="10"
   gridtolerance="10"
   guidetolerance="10"
   inkscape:pageopacity="0"
   inkscape:pageshadow="2"
   inkscape:window-width="640"
   inkscape:window-height="480"
   id="namedview36"
   showgrid="false"
   inkscape:zoom="1.4395412"
   inkscape:cx="37.793004"
   inkscape:cy="36.606374"
   inkscape:window-x="0"
   inkscape:window-y="0"
   inkscape:window-maximized="0"
   inkscape:current-layer="svg34" />
	<style
   type="text/css"
   id="style2">
	<![CDATA[
		.st1 {fill:url(#grad0-6);stroke:none;stroke-linecap:butt;stroke-width:32.2475}
		.st2 {fill:#50e6ff;stroke:none;stroke-linecap:butt;stroke-width:32.2475}
		.st3 {fill:none;fill-rule:evenodd;font-size:12px;overflow:visible;stroke-linecap:square;stroke-miterlimit:3}
	]]>
	</style>

	<defs
   id="Patterns_And_Gradients">
		<linearGradient
   id="grad0-6"
   x1="0"
   y1="65.784188"
   x2="56.269521"
   y2="65.784188"
   gradientTransform="scale(0.99272215,1.0073312)"
   gradientUnits="userSpaceOnUse">
			<stop
   offset="0"
   stop-color="#b3b2b3"
   stop-opacity="1"
   id="stop4" />
			<stop
   offset="0.215"
   stop-color="#afaeaf"
   stop-opacity="1"
   id="stop6" />
			<stop
   offset="0.44"
   stop-color="#a2a2a2"
   stop-opacity="1"
   id="stop8" />
			<stop
   offset="0.575"
   stop-color="#979797"
   stop-opacity="1"
   id="stop10" />
		</linearGradient>
	</defs>
	<g
   id="g32"
   transform="translate(-32.249405,-32.250766)">
		<title
   id="title14">Page-1</title>
		<g
   id="group735-1"
   transform="translate(32.2475,-34.0157)">
			<title
   id="title16">Time Series Insights Environment</title>
			<g
   id="group736-2">
				<title
   id="title18">a96c4dc0-0b65-4066-a8fa-5efc74b</title>
				<g
   id="shape737-3"
   transform="translate(0.406366)">
					<title
   id="title20">path15</title>
					<path
   d="m 0,87.05 a 28.9788,28.3385 0 0 1 55.86,0 h -5.53 a 23.709,23.1852 -180 0 0 -44.82,0 z m 50.23,15.46 a 23.7155,23.1915 0 0 1 -44.6,0 H 0.1 a 28.9788,28.3385 -180 0 0 55.66,0 z"
   class="st1"
   id="path22"
   inkscape:connector-curvature="0"
   style="fill:url(#grad0-6);stroke:none;stroke-width:32.24750137;stroke-linecap:butt" />
				</g>
				<g
   id="shape738-7"
   transform="translate(0,-15.1803)">
					<title
   id="title25">path17</title>
					<path
   d="m 30.42,122.96 -6.95,-15.3 -2.93,4.95 H 2.64 a 2.6382895,2.58 0 0 1 0,-5.16 H 17.5 l 6.59,-11.13 7.58,16.68 4.47,-5.61 17.92,0.04 a 2.6382895,2.58 0 0 1 0,5.16 l -15.33,-0.04 z"
   class="st2"
   id="path27"
   inkscape:connector-curvature="0"
   style="fill:#50e6ff;stroke:none;stroke-width:32.24750137;stroke-linecap:butt" />
				</g>
			</g>
		</g>
	</g>
</svg>

<?xml version="1.0" encoding="UTF-8" standalone="no"?>
<!DOCTYPE svg PUBLIC "-//W3C//DTD SVG 1.1//EN" "http://www.w3.org/Graphics/SVG/1.1/DTD/svg11.dtd">
<!-- Generated by Microsoft Visio, SVG Export Time Series Insights Environment.svg Page-1 -->
<svg xmlns="http://www.w3.org/2000/svg" xmlns:xlink="http://www.w3.org/1999/xlink" xmlns:ev="http://www.w3.org/2001/xml-events"
		width="1.68317in" height="1.70772in" viewBox="0 0 121.188 122.956" xml:space="preserve" color-interpolation-filters="sRGB"
		class="st3">
	<style type="text/css">
	<![CDATA[
		.st1 {fill:url(#grad0-6);stroke:none;stroke-linecap:butt;stroke-width:32.2475}
		.st2 {fill:#50e6ff;stroke:none;stroke-linecap:butt;stroke-width:32.2475}
		.st3 {fill:none;fill-rule:evenodd;font-size:12px;overflow:visible;stroke-linecap:square;stroke-miterlimit:3}
	]]>
	</style>

	<defs id="Patterns_And_Gradients">
		<linearGradient id="grad0-6" x1="0" y1="0" x2="1" y2="0" gradientTransform="rotate(90 0.5 0.5)">
			<stop offset="0" stop-color="#b3b2b3" stop-opacity="1"/>
			<stop offset="0.215" stop-color="#afaeaf" stop-opacity="1"/>
			<stop offset="0.44" stop-color="#a2a2a2" stop-opacity="1"/>
			<stop offset="0.575" stop-color="#979797" stop-opacity="1"/>
		</linearGradient>
	</defs>
	<g>
		<title>Page-1</title>
		<g id="group720-1" transform="translate(32.2475,-34.0157)">
			<title>Time Series Insights Environment</title>
			<g id="group721-2">
				<title>a96c4dc0-0b65-4066-a8fa-5efc74b</title>
				<g id="shape722-3" transform="translate(0.406366,0)">
					<title>path15</title>
					<path d="M0 87.05 A28.9788 28.3385 0 0 1 55.86 87.05 L50.33 87.05 A23.709 23.1852 -180 0 0 5.51 87.05 L0 87.05
								 ZM50.23 102.51 A23.7155 23.1915 0 0 1 5.63 102.51 L0.1 102.51 A28.9788 28.3385 -180 0 0 55.76 102.51
								 L50.23 102.51 Z" class="st1"/>
				</g>
				<g id="shape723-7" transform="translate(0,-15.1803)">
					<title>path17</title>
					<path d="M30.42 122.96 L23.47 107.66 L20.54 112.61 L2.64 112.61 A2.6365 2.57825 0 0 1 2.64 107.45 L17.5 107.45
								 L24.09 96.32 L31.67 113 L36.14 107.39 L54.06 107.43 A2.6365 2.57825 0 0 1 54.06 112.59 L38.73 112.55
								 L30.42 122.96 Z" class="st2"/>
				</g>
			</g>
		</g>
	</g>
</svg>
